icons/sponsor-tiers-16.svg

<svg width="16" height="16" viewBox="0 0 16 16" fill="none" xmlns="http://www.w3.org/2000/svg">
<g clip-path="url(#clip0_8519_104214)">
<path d="M10.5862 1C12.2684 1 13.5 2.36949 13.5 4.25C13.5 5.9951 12.5044 7.60897 10.8783 9.08101C10.7117 9.2319 10.5416 9.3781 10.3693 9.51947L11.4854 15.1029C11.6001 15.6764 11.0434 16.1547 10.4937 15.9548L8.08536 15.0791C8.03022 15.0591 7.96978 15.0591 7.91456 15.0791L5.5063 15.9548C4.95662 16.1547 4.39986 15.6764 4.51456 15.1029L5.63073 9.51947C5.45837 9.3781 5.28834 9.2319 5.12166 9.08101C3.49557 7.60897 2.5 5.9951 2.5 4.25C2.5 2.36949 3.73163 1 5.41379 1C6.37691 1 7.25676 1.40254 7.88808 2.07328L8 2.198L8.11192 2.07328C8.70115 1.44726 9.50688 1.05486 10.3947 1.00533L10.5862 1ZM6.965 10.495L6.247 14.089L7.40188 13.6695C7.73305 13.549 8.09151 13.5318 8.43043 13.6178L8.59804 13.6695L9.752 14.089L9.03383 10.4968C8.8351 10.6267 8.66441 10.732 8.52939 10.8114L8.36011 10.9079C8.13574 11.0307 7.86426 11.0307 7.63989 10.9079C7.5209 10.8428 7.34495 10.7392 7.12537 10.5995L6.965 10.495ZM10.5862 2.5C9.72261 2.5 8.97492 3.08028 8.72037 3.95874C8.51124 4.68042 7.48876 4.68042 7.27963 3.95874C7.02508 3.08028 6.27739 2.5 5.41379 2.5C4.59763 2.5 4 3.16452 4 4.25C4 5.4799 4.78568 6.75353 6.12834 7.96899C6.61825 8.41249 7.14609 8.81475 7.67384 9.16659L7.999 9.377L8.07529 9.33021L8.32616 9.16659C8.85391 8.81475 9.38175 8.41249 9.87166 7.96899C11.2143 6.75353 12 5.4799 12 4.25C12 3.16452 11.4024 2.5 10.5862 2.5Z" fill="black"/>
</g>
<defs>
<clipPath id="clip0_8519_104214">
<rect width="16" height="16" fill="white"/>
</clipPath>
</defs>
</svg>

<svg xmlns="http://www.w3.org/2000/svg" width="16" height="16" viewBox="0 0 16 16"><path d="M10.586 1C12.268 1 13.5 2.37 13.5 4.25c0 1.745-.996 3.359-2.622 4.831-.166.15-.336.297-.509.438l1.116 5.584a.75.75 0 01-.991.852l-2.409-.876a.25.25 0 00-.17 0l-2.409.876a.75.75 0 01-.991-.852L5.63 9.519a13.78 13.78 0 01-.51-.438C3.497 7.609 2.5 5.995 2.5 4.25 2.5 2.37 3.732 1 5.414 1c.963 0 1.843.403 2.474 1.073L8 2.198l.112-.125a3.385 3.385 0 012.283-1.068L10.586 1zm-3.621 9.495l-.718 3.594 1.155-.42a1.75 1.75 0 011.028-.051l.168.051 1.154.42-.718-3.592c-.199.13-.37.235-.505.314l-.169.097a.75.75 0 01-.72 0 9.54 9.54 0 01-.515-.308l-.16-.105zM10.586 2.5c-.863 0-1.611.58-1.866 1.459-.209.721-1.231.721-1.44 0C7.025 3.08 6.277 2.5 5.414 2.5 4.598 2.5 4 3.165 4 4.25c0 1.23.786 2.504 2.128 3.719.49.443 1.018.846 1.546 1.198l.325.21.076-.047.251-.163a13.341 13.341 0 001.546-1.198C11.214 6.754 12 5.479 12 4.25c0-1.085-.598-1.75-1.414-1.75z"/></svg>
